X: 13160
T: First Of August, The
R: jig
M: 6/8
K: Adorian
||"E7"e2d|"A"c2c cde|"A"A2A a2g|"D"f2d def|"A"e2z "E7"e2d|
"A"c2c cde|"F#m"A2A a2g|"B7"f2f b2a|"E7"gfe dcB|
"A"c2c cde|"A"A2A "A7"a2g|"D"f2d def|"E7"g2e efg|
"A"a2c cde|"D"f2F "E7"e2d|"A"cEE "E7"BEE|"A"A3||
"C#7"A2G|"F#m"F2F FGA|"F#m"c2c cBc|"Bm"d2d ded|"C#7"c2B A2G|
"F#m"F2F FGA|"F#m"c2c cBc|"Bm"dfb "C#7"a2g|"F#m"f3f2 c|
"Bm"d2d "E7"dcB|"A"c2c cBA|"Bm"B2B Bcd|"E7"e2e efg|
"A"a2c cde|"D"f2F "E7"e2d|"A"cEE "E7"BEE|"A"A3||

